www/assets/icons/percent.svg

<svg width="24" height="24" viewBox="0 0 24 24" xmlns="http://www.w3.org/2000/svg" fill='currentColor'><path d="M7.49792 11.0024C9.42792 11.0024 10.9979 9.43242 10.9979 7.50242C10.9979 5.57242 9.42792 4.00242 7.49792 4.00242C5.56792 4.00242 3.99792 5.57242 3.99792 7.50242C3.99792 9.43242 5.56792 11.0024 7.49792 11.0024ZM7.49792 6.00242C8.32792 6.00242 8.99792 6.67242 8.99792 7.50242C8.99792 8.33242 8.32792 9.00242 7.49792 9.00242C6.66792 9.00242 5.99792 8.33242 5.99792 7.50242C5.99792 6.67242 6.66792 6.00242 7.49792 6.00242Z"/><path d="M18.5879 3.99805L4.00042 18.5855L5.41462 19.9997L20.0021 5.41225L18.5879 3.99805Z"/><path d="M16.4979 13.0024C14.5679 13.0024 12.9979 14.5724 12.9979 16.5024C12.9979 18.4324 14.5679 20.0024 16.4979 20.0024C18.4279 20.0024 19.9979 18.4324 19.9979 16.5024C19.9979 14.5724 18.4279 13.0024 16.4979 13.0024ZM16.4979 18.0024C15.6679 18.0024 14.9979 17.3324 14.9979 16.5024C14.9979 15.6724 15.6679 15.0024 16.4979 15.0024C17.3279 15.0024 17.9979 15.6724 17.9979 16.5024C17.9979 17.3324 17.3279 18.0024 16.4979 18.0024Z"/></svg>

<svg xmlns="http://www.w3.org/2000/svg" width="24" height="24" viewBox="0 0 24 24" fill='currentColor'><path d="M7.498 11.002c1.93 0 3.5-1.57 3.5-3.5s-1.57-3.5-3.5-3.5-3.5 1.57-3.5 3.5 1.57 3.5 3.5 3.5m0-5c.83 0 1.5.67 1.5 1.5s-.67 1.5-1.5 1.5-1.5-.67-1.5-1.5.67-1.5 1.5-1.5m11.09-2.004L4 18.586 5.415 20 20.002 5.412zm-2.09 9.004c-1.93 0-3.5 1.57-3.5 3.5s1.57 3.5 3.5 3.5 3.5-1.57 3.5-3.5-1.57-3.5-3.5-3.5m0 5c-.83 0-1.5-.67-1.5-1.5s.67-1.5 1.5-1.5 1.5.67 1.5 1.5-.67 1.5-1.5 1.5"/></svg>
